resources/icons/16px/layout-two-rows.svg

<svg width="16" height="16" viewBox="0 0 16 16" fill="none" xmlns="http://www.w3.org/2000/svg">
<path d="M0 10C0 9.44772 0.447715 9 1 9H15C15.5523 9 16 9.44772 16 10V15C16 15.5523 15.5523 16 15 16H1C0.447715 16 0 15.5523 0 15V10Z" fill="black"/>
<path d="M0 1C0 0.447715 0.447715 0 1 0H15C15.5523 0 16 0.447715 16 1V6C16 6.55228 15.5523 7 15 7H1C0.447715 7 0 6.55228 0 6V1Z" fill="black"/>
</svg>

<svg xmlns="http://www.w3.org/2000/svg" viewBox="0 0 16 16">
  <path d="M0 10a1 1 0 0 1 1-1h14a1 1 0 0 1 1 1v5a1 1 0 0 1-1 1H1a1 1 0 0 1-1-1zM0 1a1 1 0 0 1 1-1h14a1 1 0 0 1 1 1v5a1 1 0 0 1-1 1H1a1 1 0 0 1-1-1z"/>
</svg>
